src/assets/card-bg-yellow.svg

<svg width="390" height="234" viewBox="0 0 390 234" fill="none" xmlns="http://www.w3.org/2000/svg">
<g clip-path="url(#clip0_1811_1962)">
<rect y="233.907" width="233.907" height="389.845" rx="17.3264" transform="rotate(-90 0 233.907)" fill="#8E8425"/>
<path d="M4.10776 108.86C44.3054 109.908 82.5265 113.291 121.563 109.266C170.747 104.493 220.172 104.396 269.357 105.426C290.041 105.697 310.749 100.61 331.675 99.7519C334.962 99.5821 337.973 99.8731 342.167 99.8796C340.673 105.761 335.594 106.023 330.814 106.27C284.87 109.982 238.755 110.356 192.857 109.155C165.852 108.318 139.077 111.933 112.232 114.212C80.9179 116.946 50.2927 115.626 19.6216 113.416C8.18741 112.444 -3.46504 113.046 -14.991 116.096C-16.1288 111.468 -17.2437 107.284 -18.6918 102.448C16.5183 99.7362 50.1538 89.7395 86.5478 92.5472C115.426 94.8503 144.143 88.2328 172.01 82.552C214.414 74.1114 256.921 73.4783 299.199 80.0001C311.277 81.8316 324.159 81.8359 336.616 79.4066C335.8 86.8151 334.927 87.3067 324.435 87.179C305.83 86.5775 287.455 84.6247 269.62 81.528C241.822 76.9369 214.138 80.3759 186.49 84.4828C167.46 87.2516 148.775 90.8954 130.136 95.4298C107.061 101.086 83.859 98.4899 61.0252 97.2139C45.1093 96.4735 30.044 100.6 14.2546 102.309C14.2891 102.976 14.3351 103.867 14.3696 104.535C25.4245 103.964 36.4564 102.947 47.5342 102.822C99.3728 103.046 150.981 98.8175 201.774 90.39C222.861 86.8453 243.454 91.1389 264.173 92.0776C286.697 93.1464 309.45 92.8639 331.836 91.2611C336.317 91.0296 340.466 90.1457 343.362 94.0141C339.639 97.3315 334.513 96.7034 329.756 97.3956C304.739 100.25 280.078 98.3992 255.382 95.88C231.284 93.33 207.439 95.6779 183.33 98.709C157.727 101.817 131.411 102.73 105.486 105.409C72.6895 108.442 39.2029 103.922 4.10776 108.86Z" fill="#0D1218"/>
<path d="M-10.9883 71.0513C1.52684 65.2509 16.1113 64.894 29.3843 62.2261C44.7277 59.253 60.7779 58.424 76.5819 58.5987C96.8647 58.9386 115.642 53.2112 134.511 49.2631C183.165 39.2172 232.208 36.6839 281.853 40.0663C292.625 40.8975 302.865 37.1969 314.835 38.1644C309.197 44.4024 301.223 45.8055 292.563 45.4599C260.586 43.7418 228.117 44.0314 195.955 44.5034C180.766 44.6933 166.038 48.0311 151.299 51.1711C124.476 56.9177 98.2783 63.2266 69.0787 63.3473C44.645 63.4201 19.7699 66.4891 -4.09088 71.8844C-6.13061 72.7827 -8.16013 73.8786 -10.9883 71.0513Z" fill="#0D1218"/>
<path d="M336.453 73.0884C323.206 77.3135 312.953 75.7603 303.584 73.9531C238.918 61.6723 175.527 68.2793 112.662 85.065C104.69 87.143 97.0068 88.9979 88.5116 86.729C66.3731 80.9993 45.7522 87.2715 24.7686 92.3128C21.5182 93.1055 18.2463 93.4828 15.3158 94.6756C3.2846 99.2545 -7.70518 95.0317 -19.1952 92.7092C-18.4931 88.9239 -14.3046 88.9158 -11.256 90.008C5.21256 96.0306 20.4405 89.6204 35.5095 85.9261C53.2535 81.8852 69.8361 78.5293 87.9986 82.5899C99.201 85.1354 109.751 80.8414 119.779 78.0323C141.327 72.337 162.94 67.888 185.609 66.5088C219.916 64.5284 254.212 62.3402 288.489 65.5684C303.528 67.0827 318.567 68.5969 336.453 73.0884Z" fill="#0D1218"/>
<path d="M322.194 51.6778C323.918 56.0678 320.015 55.8429 317.084 57.0607C299.51 64.5804 281.93 60.3696 265.045 58.0425C220.119 51.8316 176.274 54.9496 133.2 67.1992C112.553 73.1713 91.3878 74.9045 69.4716 73.6904C61.6649 73.2405 54.1788 73.2006 47.1341 75.9107C30.1029 82.336 11.2493 82.4567 -7.20687 84.4765C-8.98728 84.7818 -11.1102 84.2516 -13.8193 83.9649C-9.57154 79.2664 -3.29066 79.1553 2.09452 79.0904C15.563 79.0346 28.623 76.8669 41.0089 73.2411C52.2226 70.1024 62.971 69.5471 74.3714 70.0247C87.8728 70.607 100.955 68.8648 113.661 65.649C146.76 57.3273 180.632 52.3783 215.222 49.7384C236.995 48.1871 258.224 53.4892 280.151 54.916C293.973 55.9083 308.039 55.8216 322.194 51.6778Z" fill="#0D1218"/>
<path d="M338.267 108.197C337.904 112.745 334.615 112.7 330.741 112.9C293.157 114.194 255.741 118.715 218.302 122.806C173.446 127.928 127.983 132.865 83.0562 125.047C55.0184 120.24 26.7291 122.132 -1.70256 127.052C-5.55453 127.683 -9.66008 129.189 -12.8514 125.255C8.16327 121.366 28.8799 117.491 50.437 118.319C70.791 118.993 90.3732 122.08 110.198 124.076C140.84 127.239 171.06 122.227 201.413 119.796C246.954 116.365 291.687 108.877 338.267 108.197Z" fill="#0D1218"/>
<rect width="234" height="130" transform="matrix(0 -1 1 0 260.152 233.936)" fill="#0D1218"/>
<path d="M85.8518 155.683C85.5089 155.584 85.1618 155.177 85.0903 154.789C85.044 154.536 85.1028 154.36 85.4691 153.659C86.9507 150.825 87.6001 148.217 87.6124 145.051C87.6244 141.992 87.0687 139.611 85.6729 136.758C85.3739 136.146 85.1288 135.577 85.1291 135.495C85.1303 135.191 85.3874 134.751 85.6638 134.579C86.0432 134.342 86.6782 134.386 86.9812 134.67C87.097 134.779 87.3992 135.276 87.6513 135.772C88.6492 137.74 89.3301 139.899 89.6619 142.145C89.8673 143.536 89.899 146.171 89.725 147.444C89.4064 149.793 88.7751 151.888 87.7711 153.941C87.1634 155.181 86.7844 155.692 86.4667 155.692C86.4032 155.692 86.3004 155.708 86.2382 155.727C86.1746 155.746 86.0003 155.726 85.8518 155.683ZM81.765 153.55C81.2398 153.397 80.8625 152.754 81.0158 152.271C81.0527 152.155 81.3035 151.617 81.5719 151.077C82.7066 148.788 83.1852 146.335 82.9648 143.926C82.7847 141.947 82.4327 140.699 81.5424 138.873C80.9458 137.647 80.9181 137.458 81.2701 136.964C81.6057 136.495 82.4359 136.419 82.8709 136.818C83.1726 137.094 84.1043 139.05 84.4635 140.158C85.6507 143.824 85.4516 147.76 83.8981 151.361C83.103 153.206 82.5466 153.777 81.765 153.55ZM77.5512 151.386C77.226 151.24 76.9476 150.898 76.8732 150.552C76.8267 150.342 76.9087 150.109 77.297 149.33C78.7273 146.47 78.7529 143.714 77.3771 140.92C76.7723 139.693 76.7597 139.449 77.2766 138.965C77.5329 138.726 77.6399 138.684 77.9981 138.684C78.5968 138.684 78.9051 138.983 79.4361 140.078C80.2526 141.762 80.5834 143.222 80.5734 145.094C80.5632 147.017 80.2432 148.338 79.3577 150.113C78.8496 151.13 78.5999 151.398 78.0955 151.467C77.9414 151.488 77.6969 151.452 77.5512 151.386ZM73.6193 149.371C73.3615 149.265 73.0696 148.915 72.9829 148.612C72.8869 148.272 72.9677 148.003 73.3568 147.369C73.8573 146.554 73.9752 146.116 73.9794 145.051C73.9836 143.986 73.869 143.548 73.3748 142.733C73.207 142.457 73.0393 142.125 73.0006 141.997C72.8432 141.46 73.2945 140.801 73.8991 140.689C74.4117 140.593 74.7622 140.82 75.2297 141.552C76.5838 143.67 76.5728 146.5 75.2022 148.6C74.7182 149.341 74.1806 149.603 73.6193 149.371Z" fill="#0D1218"/>
<g clip-path="url(#clip1_1811_1962)">
<rect x="23.824" y="158.559" width="26.4457" height="36.3628" rx="3.63628" transform="rotate(-90 23.824 158.559)" fill="url(#paint0_linear_1811_1962)"/>
<path fill-rule="evenodd" clip-rule="evenodd" d="M47.937 131.562L42.1564 136.958L36.3758 131.539L35.903 131.981L41.8221 137.53V140.526L36.4736 140.516L35.8051 140.515L21.0968 140.486V141.111L35.8051 141.14L35.8051 149.895L21.0968 149.866V150.492L35.8051 150.52L36.4736 150.522L41.8221 150.532V153.53L35.903 159.055L36.3758 159.498L42.1564 154.102L47.937 159.52L48.4098 159.079L42.4907 153.531V150.533L47.8391 150.544L48.5077 150.545L63.216 150.574V149.949L48.5077 149.92L48.5077 141.165L63.216 141.194V140.568L48.1734 140.539C47.9887 140.538 47.8391 140.678 47.8391 140.851V149.919L42.1564 149.907L36.4736 149.896V141.141L42.1564 141.152C42.341 141.153 42.4907 141.013 42.4907 140.84V137.531L48.4098 132.006L47.937 131.562Z" fill="#47453F"/>
</g>
<rect x="23.824" y="158.559" width="26.4457" height="36.3628" rx="3.63628" transform="rotate(-90 23.824 158.559)" stroke="#47453F" stroke-width="0.545442"/>
</g>
<defs>
<linearGradient id="paint0_linear_1811_1962" x1="24.0373" y1="158.559" x2="67.8202" y2="196.777" gradientUnits="userSpaceOnUse">
<stop stop-color="#F8ECC1"/>
<stop offset="1" stop-color="#C8AC48"/>
</linearGradient>
<clipPath id="clip0_1811_1962">
<rect y="233.907" width="233.907" height="389.845" rx="17.3264" transform="rotate(-90 0 233.907)" fill="white"/>
</clipPath>
<clipPath id="clip1_1811_1962">
<rect x="23.824" y="158.559" width="26.4457" height="36.3628" rx="3.63628" transform="rotate(-90 23.824 158.559)" fill="white"/>
</clipPath>
</defs>
</svg>

<svg width="390" height="234" fill="none" xmlns="http://www.w3.org/2000/svg"><g clip-path="url(#clip0_1811_1962)"><rect y="233.907" width="233.907" height="389.845" rx="17.326" transform="rotate(-90 0 233.907)" fill="#8E8425"/><path d="M4.108 108.86c40.197 1.048 78.418 4.431 117.455.406 49.184-4.773 98.609-4.87 147.794-3.84 20.684.271 41.392-4.816 62.318-5.674 3.287-.17 6.298.121 10.492.128-1.494 5.881-6.573 6.143-11.353 6.39-45.944 3.712-92.059 4.086-137.957 2.885-27.005-.837-53.78 2.778-80.625 5.057-31.314 2.734-61.94 1.414-92.61-.796-11.435-.972-23.087-.37-34.613 2.68a271.99 271.99 0 00-3.7-13.648c35.21-2.712 68.845-12.708 105.239-9.9 28.878 2.302 57.595-4.315 85.462-9.996 42.404-8.44 84.911-9.074 127.189-2.552 12.078 1.832 24.96 1.836 37.417-.593-.816 7.408-1.689 7.9-12.181 7.772-18.605-.602-36.98-2.554-54.815-5.651-27.798-4.591-55.482-1.152-83.13 2.955a608.017 608.017 0 00-56.354 10.947c-23.075 5.656-46.277 3.06-69.11 1.784-15.917-.74-30.982 3.386-46.771 5.095l.115 2.226c11.054-.571 22.086-1.588 33.164-1.713 51.839.224 103.447-4.005 154.24-12.432 21.087-3.545 41.68.749 62.399 1.688a571.498 571.498 0 0067.663-.817c4.481-.231 8.63-1.115 11.526 2.753-3.723 3.318-8.849 2.69-13.606 3.382-25.017 2.854-49.678 1.003-74.374-1.516-24.098-2.55-47.943-.202-72.052 2.829-25.603 3.108-51.919 4.021-77.844 6.7-32.797 3.033-66.283-1.487-101.378 3.451zm-15.096-37.809c12.515-5.8 27.1-6.157 40.372-8.825 15.344-2.973 31.394-3.802 47.198-3.627 20.283.34 39.06-5.388 57.929-9.336 48.654-10.046 97.697-12.58 147.342-9.197 10.772.831 21.012-2.87 32.982-1.902-5.638 6.238-13.612 7.642-22.272 7.296-31.977-1.718-64.446-1.429-96.608-.957-15.189.19-29.917 3.528-44.656 6.668-26.823 5.747-53.02 12.056-82.22 12.176-24.434.073-49.31 3.142-73.17 8.537-2.04.899-4.07 1.995-6.897-.833z" fill="#0D1218"/><path d="M336.453 73.088c-13.247 4.226-23.5 2.672-32.869.865-64.666-12.28-128.057-5.674-190.922 11.112-7.972 2.078-15.655 3.933-24.15 1.664-22.139-5.73-42.76.543-63.743 5.584-3.25.793-6.523 1.17-9.453 2.363-12.031 4.578-23.021.356-34.511-1.967.702-3.785 4.89-3.793 7.939-2.701 16.469 6.023 31.697-.388 46.766-4.082 17.744-4.04 34.326-7.397 52.489-3.336 11.202 2.545 21.752-1.749 31.78-4.558 21.548-5.695 43.161-10.144 65.83-11.523 34.307-1.98 68.603-4.169 102.88-.94 15.039 1.514 30.078 3.028 47.964 7.52z" fill="#0D1218"/><path d="M322.194 51.678c1.724 4.39-2.179 4.165-5.11 5.383-17.574 7.52-35.154 3.309-52.039.981-44.926-6.21-88.771-3.092-131.845 9.157-20.647 5.972-41.812 7.706-63.728 6.491-7.807-.45-15.293-.49-22.338 2.22-17.031 6.426-35.885 6.547-54.34 8.567-1.781.305-3.904-.225-6.613-.512 4.247-4.699 10.528-4.81 15.914-4.875 13.468-.055 26.528-2.223 38.914-5.849 11.214-3.139 21.962-3.694 33.362-3.216 13.502.582 26.584-1.16 39.29-4.376 33.099-8.322 66.971-13.27 101.561-15.91 21.773-1.552 43.002 3.75 64.929 5.177 13.822.992 27.888.906 42.043-3.238zm16.073 56.519c-.363 4.548-3.652 4.503-7.526 4.703-37.584 1.294-75 5.815-112.439 9.906-44.856 5.122-90.319 10.059-135.246 2.241-28.038-4.807-56.327-2.915-84.759 2.005-3.852.631-7.957 2.137-11.148-1.797 21.014-3.889 41.73-7.764 63.288-6.936 20.354.674 39.936 3.761 59.761 5.757 30.642 3.163 60.862-1.849 91.215-4.28 45.541-3.431 90.274-10.919 136.854-11.599z" fill="#0D1218"/><path fill="#0D1218" d="M260.152 233.936v-234h130v234zm-174.3-78.253c-.343-.099-.69-.506-.762-.894-.046-.253.013-.429.38-1.13 1.48-2.834 2.13-5.442 2.142-8.608.012-3.059-.543-5.44-1.94-8.293-.298-.612-.543-1.181-.543-1.263.001-.304.258-.744.535-.916.38-.237 1.014-.193 1.317.091.116.109.418.606.67 1.102a20.84 20.84 0 012.01 6.373c.206 1.391.238 4.026.064 5.299-.319 2.349-.95 4.444-1.954 6.497-.608 1.24-.987 1.751-1.304 1.751a.942.942 0 00-.229.035c-.063.019-.238-.001-.386-.044zm-4.087-2.133c-.525-.153-.903-.796-.75-1.279.038-.116.288-.654.557-1.194 1.135-2.289 1.613-4.742 1.393-7.151-.18-1.979-.532-3.227-1.423-5.053-.596-1.226-.624-1.415-.272-1.909.336-.469 1.166-.545 1.6-.146.303.276 1.234 2.232 1.593 3.34 1.188 3.666.989 7.602-.565 11.203-.795 1.845-1.351 2.416-2.133 2.189zm-4.214-2.164a1.26 1.26 0 01-.678-.834c-.046-.21.036-.443.424-1.222 1.43-2.86 1.456-5.616.08-8.41-.605-1.227-.617-1.471-.1-1.955.256-.239.363-.281.721-.281.599 0 .907.299 1.438 1.394.817 1.684 1.147 3.144 1.137 5.016-.01 1.923-.33 3.244-1.215 5.019-.508 1.017-.758 1.285-1.263 1.354a1.173 1.173 0 01-.544-.081zm-3.932-2.015c-.257-.106-.55-.456-.636-.759-.096-.34-.015-.609.374-1.243.5-.815.618-1.253.622-2.318.005-1.065-.11-1.503-.604-2.318-.168-.276-.336-.608-.374-.736-.158-.537.293-1.196.898-1.308.513-.096.863.131 1.33.863 1.355 2.118 1.344 4.948-.027 7.048-.484.741-1.021 1.003-1.583.771z"/><g clip-path="url(#clip1_1811_1962)"><rect x="23.824" y="158.559" width="26.446" height="36.363" rx="3.636" transform="rotate(-90 23.824 158.559)" fill="url(#paint0_linear_1811_1962)"/><path fill-rule="evenodd" clip-rule="evenodd" d="M47.937 131.562l-5.78 5.396-5.781-5.419-.473.442 5.92 5.549v2.996l-5.35-.01-.668-.001-14.708-.029v.625l14.708.029v8.755l-14.708-.029v.626l14.708.028.669.002 5.348.01v2.998l-5.919 5.525.473.443 5.78-5.396 5.781 5.418.473-.441-5.92-5.548v-2.998l5.35.011.668.001 14.708.029v-.625l-14.708-.029v-8.755l14.708.029v-.626l-15.043-.029c-.184-.001-.334.139-.334.312v9.068l-5.683-.012-5.682-.011v-8.755l5.682.011c.185.001.335-.139.335-.312v-3.309l5.919-5.525-.473-.444z" fill="#47453F"/></g><rect x="23.824" y="158.559" width="26.446" height="36.363" rx="3.636" transform="rotate(-90 23.824 158.559)" stroke="#47453F" stroke-width=".545"/></g><defs><clipPath id="clip0_1811_1962"><rect y="233.907" width="233.907" height="389.845" rx="17.326" transform="rotate(-90 0 233.907)" fill="#fff"/></clipPath><clipPath id="clip1_1811_1962"><rect x="23.824" y="158.559" width="26.446" height="36.363" rx="3.636" transform="rotate(-90 23.824 158.559)" fill="#fff"/></clipPath><linearGradient id="paint0_linear_1811_1962" x1="24.037" y1="158.559" x2="67.82" y2="196.777" gradientUnits="userSpaceOnUse"><stop stop-color="#F8ECC1"/><stop offset="1" stop-color="#C8AC48"/></linearGradient></defs></svg>
